zag1/images/icons/Capa.svg

<svg width="45" height="49" viewBox="0 0 45 49" fill="none" xmlns="http://www.w3.org/2000/svg">
<path d="M9.76273 41.8319H13.4314C12.8956 43.4702 12.4698 45.1422 12.1568 46.8369H1.55054C1.95257 45.9371 2.41285 45.0643 2.92846 44.224C2.9822 44.1471 3.01961 44.06 3.03839 43.9682C3.05717 43.8763 3.05694 43.7816 3.0377 43.6899C3.01845 43.5981 2.98061 43.5112 2.92649 43.4346C2.87237 43.3579 2.80312 43.2931 2.72297 43.2441C2.64282 43.1951 2.55347 43.1629 2.4604 43.1495C2.36733 43.1362 2.27251 43.1419 2.18174 43.1664C2.09097 43.1908 2.00617 43.2335 1.93255 43.2918C1.85892 43.3501 1.79802 43.4228 1.75358 43.5054C1.11531 44.5433 0.556586 45.6278 0.0821625 46.7495C0.0156098 46.91 -0.0102647 47.0843 0.00682576 47.2572C0.0239162 47.43 0.0834454 47.5959 0.180152 47.7403C0.276859 47.8848 0.407765 48.0032 0.561301 48.0852C0.714837 48.1672 0.886275 48.2103 1.06046 48.2106H43.9405C44.1152 48.2105 44.2872 48.1674 44.4411 48.0851C44.5951 48.0028 44.7262 47.8838 44.8229 47.7387C44.9195 47.5936 44.9787 47.427 44.9951 47.2536C45.0115 47.0802 44.9847 46.9055 44.917 46.7449C43.2541 42.802 40.5745 39.3678 37.1502 36.7906C33.7259 34.2135 29.6787 32.5853 25.4192 32.0711L26.9208 28.3743C26.9671 28.26 27.0363 28.1564 27.1242 28.0699C27.2121 27.9833 27.3169 27.9156 27.4321 27.871C29.3259 27.1538 31.0385 26.0305 32.4488 24.5806C33.859 23.1307 34.9324 21.3896 35.5932 19.4805C36.2539 17.5714 36.4858 15.5408 36.2724 13.5325C36.059 11.5242 35.4055 9.58716 34.3583 7.85839C33.311 6.12962 31.8955 4.65135 30.2118 3.52815C28.5282 2.40494 26.6176 1.66424 24.6151 1.35843C22.6126 1.05261 20.5671 1.18916 18.6234 1.75841C16.6797 2.32765 14.8851 3.3157 13.3668 4.65266C13.2366 4.77538 13.1594 4.94367 13.1513 5.12205C13.1432 5.30044 13.2048 5.475 13.3233 5.60895C13.4417 5.7429 13.6077 5.82578 13.7863 5.84013C13.9648 5.85448 14.142 5.79918 14.2804 5.68587C15.6479 4.48811 17.2624 3.60404 19.0099 3.09602C20.7575 2.588 22.5955 2.4684 24.3945 2.74566C26.1934 3.02292 27.9095 3.69029 29.4215 4.70069C30.9336 5.71109 32.2048 7.03991 33.1456 8.59343C34.0864 10.1469 34.6738 11.8873 34.8664 13.6918C35.059 15.4963 34.8521 17.3209 34.2602 19.037C33.6684 20.753 32.7061 22.3188 31.4411 23.6237C30.1762 24.9286 28.6395 25.941 26.9393 26.5894C26.6469 26.7016 26.3807 26.8724 26.1572 27.0913C25.9337 27.3101 25.7576 27.5724 25.6398 27.8618L23.686 32.6737L23.6777 32.6921V32.6976L22.9393 34.512C22.9038 34.5988 22.8431 34.6731 22.765 34.7254C22.687 34.7777 22.595 34.8057 22.5009 34.8057C22.4069 34.8057 22.3149 34.7777 22.2368 34.7254C22.1588 34.6731 22.0981 34.5988 22.0626 34.512L21.2144 32.4225L21.2033 32.3958L19.3621 27.8628C19.2455 27.5739 19.0707 27.312 18.8484 27.0933C18.6262 26.8746 18.3612 26.7037 18.07 26.5912C15.6682 25.6737 13.6094 24.0389 12.1751 21.9105C10.7408 19.7821 10.0011 17.264 10.0571 14.7005C10.1116 12.1439 10.9649 9.668 12.4983 7.61798C12.596 7.47105 12.6336 7.29235 12.6032 7.11865C12.5728 6.94495 12.4768 6.78948 12.3349 6.68422C12.193 6.57896 12.016 6.53192 11.8404 6.55278C11.6648 6.57364 11.5039 6.66082 11.3908 6.79637C9.68641 9.07356 8.73722 11.8241 8.67552 14.6646C8.61225 17.5127 9.43323 20.3107 11.0261 22.6758C12.6191 25.0409 14.9061 26.8577 17.5744 27.8775C17.6887 27.922 17.7926 27.9895 17.8796 28.0757C17.9666 28.162 18.0348 28.2652 18.0801 28.3789L19.5817 32.0747C17.6569 32.3046 15.7667 32.7643 13.9519 33.4438C13.8004 33.5006 13.6738 33.6086 13.594 33.7489C13.5142 33.8892 13.4863 34.053 13.5152 34.2117C13.5441 34.3704 13.6279 34.514 13.752 34.6175C13.8762 34.7209 14.0328 34.7777 14.1946 34.7778C14.2778 34.7776 14.3603 34.7626 14.4383 34.7337C15.669 34.2719 16.9375 33.9173 18.2296 33.6738C16.5472 35.1459 15.0751 37.4708 13.9242 40.4573H11.2403L9.76273 41.8319ZM20.3136 33.8753L20.7815 35.0272C20.9203 35.3682 21.1581 35.6602 21.4643 35.8657C21.7705 36.0713 22.1313 36.1811 22.5005 36.1811C22.8697 36.1811 23.2304 36.0713 23.5367 35.8657C23.8429 35.6602 24.0806 35.3682 24.2194 35.0272L24.6864 33.8771C25.7829 34.4862 26.8507 35.558 27.8078 37.0163C27.8574 37.092 27.9215 37.1571 27.9964 37.2081C28.0713 37.259 28.1555 37.2947 28.2442 37.3132C28.333 37.3317 28.4245 37.3326 28.5136 37.3159C28.6027 37.2991 28.6876 37.265 28.7635 37.2155C28.8393 37.166 28.9047 37.1021 28.9558 37.0275C29.0069 36.9528 29.0427 36.8689 29.0613 36.7804C29.0798 36.6919 29.0807 36.6007 29.0639 36.5119C29.0471 36.4231 29.0129 36.3384 28.9633 36.2628C28.3533 35.3053 27.6163 34.4344 26.7722 33.6738C30.1306 34.3063 33.3038 35.6822 36.0578 37.6999C37.1808 38.5229 38.227 39.4451 39.1837 40.4555H31.0675C30.8396 39.8639 30.5978 39.2962 30.3449 38.758C30.3064 38.6761 30.2521 38.6026 30.1852 38.5417C30.1182 38.4807 30.0398 38.4335 29.9545 38.4028C29.8693 38.372 29.7788 38.3583 29.6882 38.3624C29.5976 38.3665 29.5087 38.3884 29.4266 38.4268C29.3445 38.4651 29.2707 38.5192 29.2096 38.586C29.1485 38.6528 29.1011 38.7309 29.0703 38.8159C29.0394 38.9009 29.0257 38.9911 29.0298 39.0814C29.0339 39.1717 29.0558 39.2604 29.0943 39.3422C29.2623 39.7004 29.4247 40.0718 29.5816 40.4564H15.4129C16.7317 37.2335 18.4345 34.9094 20.3136 33.8725V33.8753ZM13.567 46.8369C13.8915 45.139 14.3362 43.4662 14.8979 41.8309H30.1031C30.6658 43.4662 31.1117 45.139 31.4376 46.8369H13.567ZM32.8479 46.8369C32.5319 45.1417 32.1031 43.4693 31.5641 41.8309H40.3891C41.6216 43.3617 42.6514 45.0442 43.4532 46.8369H32.8479Z" fill="#E5357E"/>
<path d="M31.0823 21.3342L23.7035 35.9436C23.5832 36.1814 23.3983 36.3808 23.1699 36.5189C22.9414 36.657 22.6786 36.7283 22.4115 36.7246C22.1443 36.721 21.8836 36.6425 21.659 36.4983C21.4345 36.354 21.2551 36.1497 21.1414 35.9086L13.9167 20.5797" fill="#E5357E"/>
<path d="M22.5001 4.59586e-07C19.5765 0.00072831 16.7188 0.865647 14.2883 2.48539C11.8578 4.10513 9.96368 6.40696 8.84542 9.09981C7.72716 11.7927 7.435 14.7556 8.00588 17.614C8.57676 20.4723 9.98504 23.0978 12.0526 25.1583C14.1203 27.2188 16.7543 28.6219 19.6218 29.1901C22.4893 29.7583 25.4614 29.4661 28.1623 28.3505C30.8632 27.2349 33.1717 25.3459 34.7957 22.9225C36.4198 20.4991 37.2865 17.65 37.2863 14.7355C37.2862 12.8001 36.9036 10.8836 36.1604 9.09556C35.4173 7.30752 34.328 5.68293 32.955 4.31458C31.5819 2.94622 29.9519 1.8609 28.1581 1.1206C26.3642 0.380299 24.4416 -0.000482893 22.5001 4.59586e-07ZM22.5001 18.3035C21.7922 18.3037 21.1001 18.0946 20.5114 17.7026C19.9227 17.3107 19.4638 16.7535 19.1928 16.1016C18.9218 15.4496 18.8508 14.7322 18.9888 14.04C19.1268 13.3478 19.4676 12.712 19.9681 12.2129C20.4686 11.7138 21.1063 11.3739 21.8006 11.2362C22.4949 11.0984 23.2146 11.169 23.8687 11.4391C24.5227 11.7091 25.0817 12.1664 25.4751 12.7532C25.8684 13.3399 26.0783 14.0298 26.0783 14.7355C26.0783 15.6816 25.7013 16.589 25.0303 17.2581C24.3593 17.9272 23.4492 18.3032 22.5001 18.3035Z" fill="#E5357E"/>
<path d="M9.91215 39.9578L7.31135 45.1101C7.269 45.1939 7.20388 45.2641 7.12342 45.3128C7.04296 45.3615 6.95039 45.3866 6.85629 45.3854C6.76218 45.3841 6.67031 45.3565 6.59118 45.3058C6.51204 45.255 6.44882 45.183 6.40872 45.0981L3.86145 39.6947" fill="#E5357E"/>
<path d="M6.88685 32.4381C5.85639 32.4383 4.84912 32.7431 3.99244 33.314C3.13575 33.8849 2.46813 34.6962 2.074 35.6453C1.67987 36.5945 1.57693 37.6388 1.77821 38.6463C1.97949 39.6537 2.47595 40.5791 3.20479 41.3053C3.93363 42.0315 4.86212 42.5259 5.87284 42.726C6.88356 42.9261 7.93111 42.8229 8.88301 42.4295C9.83491 42.0361 10.6484 41.3701 11.2206 40.5158C11.7928 39.6615 12.0981 38.6572 12.0977 37.63C12.0972 36.2527 11.548 34.932 10.5708 33.9583C9.59356 32.9847 8.26845 32.4379 6.88685 32.4381ZM6.88685 38.8895C6.6374 38.8895 6.39355 38.8158 6.18611 38.6777C5.97868 38.5396 5.81697 38.3432 5.72142 38.1135C5.62588 37.8838 5.60079 37.631 5.64932 37.3871C5.69785 37.1432 5.81783 36.9191 5.99409 36.7431C6.17034 36.5671 6.39497 36.4472 6.63959 36.3985C6.8842 36.3497 7.13781 36.3744 7.36838 36.4693C7.59895 36.5642 7.79611 36.7251 7.93497 36.9317C8.07382 37.1383 8.14812 37.3813 8.14849 37.63C8.14885 37.7953 8.11648 37.9591 8.05323 38.112C7.98998 38.2648 7.89709 38.4037 7.77989 38.5208C7.66269 38.6378 7.52347 38.7306 7.37023 38.7938C7.21698 38.8571 7.05272 38.8896 6.88685 38.8895Z" fill="#E5357E"/>
<path d="M42.2091 31.3737L39.6074 36.526C39.565 36.6097 39.4998 36.6799 39.4193 36.7285C39.3388 36.7771 39.2462 36.8022 39.1521 36.8008C39.058 36.7995 38.9661 36.7718 38.887 36.7209C38.808 36.67 38.7448 36.598 38.7048 36.5131L36.1584 31.1106" fill="#E5357E"/>
<path d="M39.1837 23.855C38.1531 23.8546 37.1454 24.159 36.2883 24.7295C35.4311 25.3001 34.7629 26.1113 34.3683 27.0604C33.9736 28.0096 33.8701 29.0541 34.071 30.0619C34.2718 31.0696 34.768 31.9954 35.4966 32.7221C36.2253 33.4487 37.1538 33.9436 38.1646 34.1442C39.1755 34.3448 40.2233 34.242 41.1756 33.8489C42.1278 33.4558 42.9418 32.79 43.5144 31.9357C44.0871 31.0814 44.3927 30.077 44.3927 29.0496C44.3927 27.6722 43.844 26.3512 42.8672 25.3771C41.8903 24.403 40.5654 23.8555 39.1837 23.855ZM39.1837 30.3073C38.9342 30.3075 38.6902 30.2339 38.4826 30.0958C38.275 29.9577 38.1131 29.7613 38.0175 29.5315C37.9219 29.3017 37.8967 29.0488 37.9453 28.8048C37.9939 28.5607 38.114 28.3366 38.2904 28.1606C38.4668 27.9846 38.6916 27.8647 38.9363 27.8161C39.1811 27.7675 39.4348 27.7924 39.6654 27.8875C39.896 27.9827 40.0931 28.1439 40.2318 28.3507C40.3704 28.5576 40.4445 28.8008 40.4445 29.0496C40.4445 29.383 40.3117 29.7027 40.0753 29.9386C39.8389 30.1744 39.5182 30.307 39.1837 30.3073Z" fill="#E5357E"/>
</svg>

<svg width="45" height="49" fill="none" xmlns="http://www.w3.org/2000/svg"><path d="M9.763 41.832h3.668a38.731 38.731 0 00-1.274 5.005H1.55c.402-.9.862-1.773 1.377-2.613a.687.687 0 00-.746-1.058.69.69 0 00-.428.34 24.157 24.157 0 00-1.672 3.243 1.054 1.054 0 00.48 1.336c.153.082.324.125.498.126h42.88a1.063 1.063 0 00.883-.472 1.054 1.054 0 00.094-.994 24.259 24.259 0 00-7.767-9.954 24.365 24.365 0 00-11.73-4.72l1.5-3.697a.902.902 0 01.512-.503 13.832 13.832 0 005.017-3.29 13.78 13.78 0 003.144-5.1 13.745 13.745 0 00-1.235-11.623 13.804 13.804 0 00-4.146-4.33 13.853 13.853 0 00-11.589-1.77 13.84 13.84 0 00-5.256 2.895.688.688 0 00.42 1.187.693.693 0 00.493-.154A12.48 12.48 0 0129.421 4.7a12.42 12.42 0 013.725 3.892 12.378 12.378 0 01-1.705 15.03 12.446 12.446 0 01-4.502 2.966 2.29 2.29 0 00-1.3 1.273l-1.953 4.812-.008.018v.006l-.739 1.814a.472.472 0 01-.702.213.472.472 0 01-.174-.213l-.849-2.09-.01-.026-1.842-4.533a2.273 2.273 0 00-1.292-1.272 12.476 12.476 0 01-5.895-4.68 12.416 12.416 0 01-2.118-7.21 12.26 12.26 0 012.441-7.083.688.688 0 00-.658-1.065.692.692 0 00-.45.243 13.624 13.624 0 00-2.714 7.869 13.792 13.792 0 002.35 8.01 13.86 13.86 0 006.548 5.203.895.895 0 01.506.5l1.502 3.697c-1.925.23-3.815.69-5.63 1.369a.69.69 0 00-.437.768.69.69 0 00.923.522c1.231-.462 2.5-.817 3.792-1.06-1.683 1.472-3.155 3.797-4.306 6.783H11.24l-1.477 1.375zm10.55-7.957l.469 1.152a1.85 1.85 0 001.718 1.154 1.86 1.86 0 001.72-1.154l.466-1.15c1.097.61 2.165 1.681 3.122 3.14a.689.689 0 00.956.198.691.691 0 00.3-.703.687.687 0 00-.1-.25 12.593 12.593 0 00-2.192-2.588 22.876 22.876 0 019.286 4.026 23.15 23.15 0 013.126 2.755h-8.116a25.912 25.912 0 00-.723-1.697.689.689 0 00-.918-.331.689.689 0 00-.333.915c.168.358.33.73.488 1.114h-14.17c1.32-3.223 3.022-5.547 4.902-6.584v.003zm-6.746 12.962c.325-1.698.77-3.37 1.33-5.006h15.206a36.574 36.574 0 011.335 5.006H13.567zm19.28 0a38.73 38.73 0 00-1.283-5.006h8.825a22.875 22.875 0 013.064 5.006H32.848z" fill="#E5357E"/><path d="M31.082 21.334l-7.379 14.61a1.423 1.423 0 01-1.291.78 1.429 1.429 0 01-1.27-.815l-7.225-15.33" fill="#E5357E"/><path d="M22.5 0c-2.924 0-5.781.866-8.212 2.485A14.746 14.746 0 008.845 9.1a14.694 14.694 0 00-.84 8.514 14.723 14.723 0 004.048 7.544 14.797 14.797 0 007.569 4.032c2.867.568 5.84.276 8.54-.84a14.773 14.773 0 006.634-5.428 14.703 14.703 0 00-1.841-18.607 14.787 14.787 0 00-4.797-3.194A14.823 14.823 0 0022.5 0zm0 18.303a3.587 3.587 0 01-3.307-2.201 3.558 3.558 0 01.775-3.89 3.582 3.582 0 013.9-.773 3.56 3.56 0 011.162 5.819 3.585 3.585 0 01-2.53 1.046zM9.912 39.958l-2.6 5.152a.501.501 0 01-.903-.012L3.86 39.695" fill="#E5357E"/><path d="M6.887 32.438c-1.03 0-2.038.305-2.895.876a5.197 5.197 0 00-1.918 2.331 5.179 5.179 0 001.13 5.66 5.215 5.215 0 005.679 1.124 5.206 5.206 0 002.338-1.913 5.182 5.182 0 00-.65-6.558 5.219 5.219 0 00-3.684-1.52zm0 6.451a1.265 1.265 0 01-1.166-.776 1.254 1.254 0 01.919-1.715 1.265 1.265 0 011.295.534 1.255 1.255 0 01-1.048 1.957zm35.323-7.515l-2.603 5.152a.501.501 0 01-.902-.013l-2.547-5.402" fill="#E5357E"/><path d="M39.184 23.855c-1.03 0-2.039.304-2.896.875a5.198 5.198 0 00-1.92 2.33 5.18 5.18 0 001.129 5.662 5.217 5.217 0 005.679 1.127 5.207 5.207 0 002.338-1.913 5.183 5.183 0 00-.647-6.559 5.22 5.22 0 00-3.683-1.522zm0 6.452a1.264 1.264 0 01-1.166-.775 1.254 1.254 0 01.918-1.716 1.266 1.266 0 011.296.535 1.256 1.256 0 01-1.048 1.956z" fill="#E5357E"/></svg>
